X:124
T:Du fel y Glo - Black as the Coal
M:9/8
L:1/8
Q:120
C:Trad.
R:Slip jig
K:G
GBB GBB D3 | GBB GBB c3 | GBB GBB D3 | dcB A2 G G3 :||:
dBG GAB D3 | dBG GAB c3 | dBG GAB D3 | dcB A2 G G3 :||
